X:1
T:Paddock, LMD
T:Paddock, LMD
T:Anonymous, 1866
T:Public Domain Courtesy of the Cyber Hymnal™
C:Anonymous, 1866
Z:Public Domain
Z:Courtesy of the Cyber Hymnal™
%%score ( 1 2 ) ( 3 4 )
L:1/8
Q:1/4=130
M:3/2
K:F
V:1 treble 
V:2 treble 
V:3 bass 
V:4 bass 
V:1
|: [A,F]2 [CF]2 [FA]2 | [Ac]6 [FA]2 [GB]2 [Ec]2 | [FA]6 [FA]2 [EG]2 [DF]2 | %3
 [EG]6 [CF]2 [FA]2 [EG]2 | F6 :| [Fc]2 [Fc]2 [Fc]2 | [Fd]6 [DGB]2 [EG]2 [Ec]2 | %7
 [FA]6 [FA]2 [FA]2 [FA]2 | [DB]6 [CA]2 [EG]2 [DF]2 | [EG]6 [A,F]2 [CF]2 [FA]2 | %10
 [Ac]6 [FA]2 [GB]2 [Ec]2 | [FA]6 [FA]2 [EG]2 [DF]2 | [EG]6 [CF]2 [FA]2 [EG]2 | F6 |] %14
V:2
|: x6 | x12 | x12 | x12 | F6 :| x6 | x12 | x12 | x12 | x12 | x12 | x12 | x12 | F6 |] %14
V:3
|: F,2 F,2 F,2 | F,6 F,2 E,2 C,2 | F,6 F,2 C,2 D,2 | C,6 F,2 C,2 C,2 | F,6 :| A,2 A,2 A,2 | %6
 B,6 B,,2 C,2 C,2 | F,6 F,2 F,2 F,2 | F,6 F,2 C,2 D,2 | C,6 F,2 F,2 F,2 | F,6 F,2 E,2 C,2 | %11
 F,6 F,2 C,2 D,2 | C,6 F,2 C,2 C,2 | F,6 |] %14
V:4
|: x6 | x12 | x12 | x12 | x6 :| x6 | x12 | x12 | x12 | x12 | F,6 x6 | x12 | x12 | x6 |] %14

